X: 1
T: Gin I Were Where Gadie Rins
M: 2/4
L: 1/8
R: polka
K: Dmaj
AA/B/ dd/e/ | ff fe/d/ | ff fe/d/ | ee f/e/d/B/ |
 A/d/A/B/ d/A/d/e/ | ff fe/f/ | aA AB/c/ | df dB :|
|: AF FA/A/ | GE EA/^G/ | AD FA | d/c/d/e/ f/e/d/ B/ |
AF FA/A/ | GE EA/A/ | FD FA | d2 d/e/d/B/ :|
